!!!!SEGMENT: Mou3008-La_rousee_du_mois_de_may_I.krn
!!!id: Mou3008
!!!AGN: Chanson
!!!voices: 5
!!!COM: Jean Mouton
!!!OTL: La rousée du mois de may I
**kern	**kern	**kern	**kern	**kern
*part5	*part4	*part3	*part2	*part1
*staff5	*staff4	*staff3	*staff2	*staff1
*I"Bassus	*I"Tenor II	*I"Tenor I	*I"Altus	*I"Superius
*I'B	*I'T. II	*I'T. I	*I'A	*I'S
*clefF4	*clefGv2	*clefGv2	*clefGv2	*clefG2
*k[b-]	*k[b-]	*k[b-]	*k[b-]	*k[b-]
*F:	*F:	*F:	*F:	*F:
*M2/1	*M2/1	*M2/1	*M2/1	*M2/1
*met(C|)	*met(C|)	*met(C|)	*met(C|)	*met(C|)
=1	=1	=1	=1	=1
0r	1G	0r	0r	0r
.	2d	.	.	.
.	[2d	.	.	.
=2	=2	=2	=2	=2
0r	2d]	1r	1r	0r
.	2c	.	.	.
.	[1e	1c	1g	.
=3	=3	=3	=3	=3
0r	2e]	2g	2b-y	0r
.	2e	1g	1b-y	.
.	1d	.	.	.
.	.	2f	2a	.
=4	=4	=4	=4	=4
1G	1r	2g	2b-y	1g
.	.	2e	2g	.
2B-y	2r	1d	1f	2dd
[2B-y	2d	.	.	[2dd
=5	=5	=5	=5	=5
2B-]	2f	0r	1r	2dd]
2A	1f	.	.	2cc
2B-y	.	.	1d	2dd
2G	2g	.	.	2b-y
=6	=6	=6	=6	=6
1F	2a	2r	2f	1a
.	2f	1c	1f	.
2r	1g	.	.	[1cc
2C	.	2c	2e	.
=7	=7	=7	=7	=7
2F	2r	2A	2f	2cc]
2G	1g	2B-y	2.d	2b-y
2C	.	2c	.	2g
.	.	.	4c	.
2r	2f	2A	[2c	2a
=8	=8	=8	=8	=8
0r	2d	1G	2c]	2.b-y
.	2e	.	2B-y	.
.	.	.	.	4cc
.	2.f	1F	[1c	1a
.	4g	.	.	.
=9	=9	=9	=9	=9
1C	1e	2r	1c]	0g
.	.	1c	.	.
2G	1d	.	1r	.
[2G	.	2B-y	.	.
=10	=10	=10	=10	=10
2G]	2r	2G	1r	2r
2F	2c	2A	.	2cc
2G	2g	2B-y	1G	2b-y
2E	[2g	2c	.	2g
=11	=11	=11	=11	=11
1D	2g]	1A	2d	2r
.	2f#i	.	1d	2a
1r	2g	2G	.	2b-y
.	2e	[2g	2c	2cc
=12	=12	=12	=12	=12
1r	2d	2g]	1d	1a
.	2r	2f	.	.
1G	1r	2d	1B-y	1g
.	.	2e	.	.
=13	=13	=13	=13	=13
2F	2r	1f	1A	1r
2D	1d	.	.	.
1E	.	2g	2r	1g
.	2c	[2e	[2c	.
=14	=14	=14	=14	=14
2F	2A	4e]	2c]	2a
.	.	4d	.	.
2G	2G	1d	2B-y	2b-y
1E	2B-y	.	1G	4a
.	.	.	.	4g
.	2c	2c	.	[2g
=15	=15	=15	=15	=15
1D	1A	[0d	2r	2g]
.	.	.	2A	2f#i
[1G	[1G	.	2.B-y	1g
.	.	.	4c	.
=16	=16	=16	=16	=16
1G]	0G_	1d]	2d	2r
.	.	.	2G	2.dd
1r	.	2d	2.g	.
.	.	.	.	4cc
.	.	2d	.	4b-y
.	.	.	4f	4a
=17	=17	=17	=17	=17
1r	1G]	2g	4e	1b-y
.	.	.	4d	.
.	.	2g	1d	.
2A	1r	1e	.	[1a
2A	.	.	2c#i	.
=18	=18	=18	=18	=18
2.d	0r	1f	2d	1a]
.	.	.	1f	.
4d	.	.	.	.
2B-y	.	1g	.	2r
2c	.	.	2e	2g
=19	=19	=19	=19	=19
2d	1r	0r	2f	1dd
4G	.	.	2g	.
4A	.	.	.	.
4B-y	2d	.	2.f	2dd
4A	.	.	.	.
[2B-y	2d	.	.	2dd
.	.	.	4e	.
=20	=20	=20	=20	=20
2B-]	2g	2G	1d	1b-y
2G	2g	2G	.	.
1A	1e	2c	[1a	1cc
.	.	2c	.	.
=21	=21	=21	=21	=21
2D	1f	1A	1a]	0dd
2D	.	.	.	.
2.G	1g	1B-y	2r	.
.	.	.	[2g	.
4G	.	.	.	.
=22	=22	=22	=22	=22
2E	0r	1c	2g]	1r
2F	.	.	2a	.
1G	.	1r	2.b-y	2r
.	.	.	.	2g
.	.	.	4a	.
=23	=23	=23	=23	=23
2r	1r	0r	2g	1dd
4G	.	.	2g	.
4A	.	.	.	.
4B-y	2d	.	2.f	2dd
4A	.	.	.	.
[2B-y	2d	.	.	2dd
.	.	.	4e	.
=24	=24	=24	=24	=24
2B-]	2g	2G	1d	1b-y
2G	2g	2G	.	.
1A	1e	2c	[1a	1cc
.	.	2c	.	.
=25	=25	=25	=25	=25
2D	1f	1A	1a]	0dd
2D	.	.	.	.
2.G	1g	1B-y	2g	.
.	.	.	2b-y	.
4G	.	.	.	.
=26	=26	=26	=26	=26
2E	1r	1c	2b-y	1r
2F	.	.	2a	.
1G	2G	1r	2b-y	2g
.	2B-y	.	2g	2dd
=27	=27	=27	=27	=27
0r	2B-y	2d	1f	2dd
.	2A	2f	.	2cc
.	2B-y	2f	1r	2dd
.	2G	2e	.	2b-y
=28	=28	=28	=28	=28
1r	1F	2f	2c	0a
.	.	2d	2f	.
2A	1r	2c	2e	.
2d	.	2r	[2f	.
=29	=29	=29	=29	=29
2d	0r	2r	2f]	2r
2c	.	2g	2e	2cc
2d	.	2f	1d	2b-y
2B-y	.	2d	.	2g
=30	=30	=30	=30	=30
1A	0r	2.e	1c	1a
.	.	4f	.	.
1r	.	4g	1r	2.b-y
.	.	4a	.	.
.	.	[2g	.	.
.	.	.	.	4cc
=31	=31	=31	=31	=31
0r	1r	2g]	0r	1a
.	.	2f	.	.
.	2r	1e	.	[1g
.	[2c	.	.	.
=32	=32	=32	=32	=32
2r	2c]	1d	0r	1g]
1G	2B-y	.	.	.
.	2G	1r	.	1r
2F	2A	.	.	.
=33	=33	=33	=33	=33
2D	2B-y	2r	0r	0r
2E	2c	1c	.	.
2F	2A	.	.	.
2G	[2d	2B-y	.	.
=34	=34	=34	=34	=34
1E	2d]	1G	2r	0r
.	2c#i	.	1g	.
1D	1d	1A	.	.
.	.	.	2f	.
=35	=35	=35	=35	=35
0r	0r	2B-y	2d	2r
.	.	2c	2e	1cc
.	.	2A	2f	.
.	.	2G	2g	2b-y
=36	=36	=36	=36	=36
0r	1c	1r	1e	2g
.	.	.	.	2a
.	2B-y	2r	2d	2b-y
.	2e-i	2c	[2g	2cc
=37	=37	=37	=37	=37
2r	1d	2d	2g]	1a
2D	.	2f	2f	.
2E	2G	1e	1g	2.g
2C	[2c	.	.	.
.	.	.	.	4f
=38	=38	=38	=38	=38
1G	2c]	1d	2r	4g
.	.	.	.	4a
.	2B-y	.	1g	1b-y
2B-y	2G	2r	.	.
2F	2A	2c	2f	[2a
=39	=39	=39	=39	=39
1G	2.B-y	2B-y	2d	4a]
.	.	.	.	4g
.	.	2G	2e	1g
.	4c	.	.	.
1D	1A	1d	2f	.
.	.	.	[2d	2f#i
=40	=40	=40	=40	=40
0G	1G	1B-y	4d]	0g
.	.	.	4c	.
.	.	.	2d	.
.	2r	2.G	1B-y	.
.	[2d	.	.	.
.	.	4A	.	.
=41	=41	=41	=41	=41
0r	2d]	2B-y	0r	2r
.	2e	2c	.	2g
.	2f	2d	.	2dd
.	2g	2B-y	.	[2dd
=42	=42	=42	=42	=42
1r	2e	1A	0r	2dd]
.	2e	.	.	2cc#i
2r	1d	2r	.	2dd
2G	.	[2g	.	2b-y
=43	=43	=43	=43	=43
2d	0r	2g]	2r	2a
1d	.	2f	2d	1ff
.	.	2d	2a	.
2c	.	2e	[2a	[2ee
=44	=44	=44	=44	=44
2d	0r	2f	2a]	4ee]
.	.	.	.	4dd
2B-y	.	2g	2g	1dd
1A	.	1e	1a	.
.	.	.	.	2cc
=45	=45	=45	=45	=45
0r	2r	1d	1f	2b-y
.	1d	.	.	2a
.	.	1r	1e	2g
.	2c	.	.	[2cc
=46	=46	=46	=46	=46
1r	2A	0r	2r	2cc]
.	2B-y	.	1g	2b-y
2r	2c	.	.	1a
[2d	2d	.	2f	.
=47	=47	=47	=47	=47
2d]	2B-y	0r	2d	2r
2c	2A	.	2e	1cc
2A	1r	.	2f	.
2B-y	.	.	2g	2b-y
=48	=48	=48	=48	=48
2.c	0r	0r	2.e	2g
.	.	.	.	2a
4d	.	.	4d	.
2B-y	.	.	2d	2b-y
[2A	.	.	2e	2cc
=49	=49	=49	=49	=49
2A]	0r	2r	1c	1a
4G	.	1f	.	.
4F	.	.	.	.
2.c	.	.	2r	2g
.	.	2e	2g	[2cc
4B-y	.	.	.	.
=50	=50	=50	=50	=50
2A	1r	2c	2f	2cc]
1G	.	2d	2g	2b-y
.	2r	2e	1c	2g
2F	[2c	2f	.	2a
=51	=51	=51	=51	=51
1G	2c]	1d	2g	1b-y
.	2B-y	.	1g	.
2E	2G	2c	.	2cc
2F	2A	2c	2f	[2a
=52	=52	=52	=52	=52
2G	2B-y	2B-y	2d	4a]
.	.	.	.	4g
2E	2c	2G	2e	1g
1D	1A	1d	2f	.
.	.	.	[2d	2f#i
=53	=53	=53	=53	=53
1G	0G	2B-y	4d]	1g
.	.	.	4c	.
.	.	2e-i	4B-y	.
.	.	.	4A	.
1r	.	2.d	2B-y	2r
.	.	.	2G	[2dd
.	.	4c	.	.
=54	=54	=54	=54	=54
1.G	2r	4B-y	2.d	4dd]
.	.	4A	.	4cc
.	1B-y	2d	.	4b-y
.	.	.	4c	4a
.	.	2G	4d	2b-y
.	.	.	4e	.
2F	2c	2A	[2f	[2a
=55	=55	=55	=55	=55
2D	2d	2.B-y	2f]	4a]
.	.	.	.	4f
2E	2G	.	2e	2g
.	.	4c	.	.
2F	2c	2A	2c	2a
2G	2B-y	[2d	[2g	[2b-y
=56	=56	=56	=56	=56
1E	1G	2d]	2g]	4b-]
.	.	.	.	4a
.	.	2c#i	2e	1g
1D	1A	1d	2f	.
.	.	.	[2d	2f#i
=57	=57	=57	=57	=57
[0Gl	[0Gl	2B-y	4d]	[0gl
.	.	.	4c	.
.	.	2e-i	4B-y	.
.	.	.	4A	.
.	.	1d	2.B-y	.
.	.	.	4c	.
=58	=58	=58	=58	=58
00G]	00G]	00B-yl	00dl	00g]
==	==	==	==	==
*-	*-	*-	*-	*-
!!!system-decoration: [*]
!!!RDF**kern: i = editorial accidental
!!!RDF**kern: l = terminal long
!!!ENC: Benjamin Ory
!!!END: 2024/11/21
!!!EED: Benjamin Ory
!!!EEV: 2024/11/21
!!!YEC: Copyright 2024 Benjamin Ory, All Rights Reserved
!!!ONB: Translated from MusicXML on 2024/11/21